agriculturalbankofchina.svg

<svg viewBox="0 0 24 24" xmlns="http://www.w3.org/2000/svg"><path d="M13.0073 0.0417794C12.6743 0.0134128 12.34 0.000462795 12.0002 0.000462795L11.9577 0.000462795C11.6333 0.00107946 11.3114 0.0152628 10.9926 0.0417794C10.8693 0.051646 10.7472 0.064596 10.6251 0.079396L10.6251 6.89478C10.6251 7.2321 10.9007 7.50775 11.2368 7.50775L12.678 7.50775C13.0153 7.50775 13.2922 7.2321 13.2922 6.89478L13.2922 0.0682962C13.1972 0.0584293 13.1016 0.0510294 13.0073 0.0417794M14.6248 0.28752L14.6248 3.10321L14.6248 7.5617C14.6008 7.81515 14.401 8.0168 14.1469 8.04209L14.1469 8.04394L12.7582 8.04394C12.4628 8.04394 12.2242 8.28259 12.2242 8.57612L12.2242 12.3076C12.2242 12.0257 12.4425 11.797 12.7187 11.7778L15.3759 11.7778C15.3932 11.7791 15.408 11.7791 15.4247 11.7791C15.4413 11.7791 15.458 11.7791 15.4752 11.7778C15.6559 11.7618 15.8101 11.6514 15.8939 11.4979C15.8945 11.4948 15.8958 11.4936 15.897 11.4899C15.9093 11.467 15.9192 11.4418 15.9291 11.4165C15.9328 11.4017 15.9389 11.3863 15.9414 11.3702C15.9451 11.3597 15.9476 11.348 15.9476 11.3351C15.9537 11.3073 15.9556 11.2814 15.9574 11.2524L15.9574 11.2487L15.9574 11.2469L15.9574 11.2463L15.9574 11.245L15.9574 11.242L15.9574 3.61628C19.1074 5.11416 21.2842 8.32329 21.2842 12.0418C21.2842 16.7395 17.8105 20.6264 13.291 21.272L13.291 16.0402L15.3759 16.0402C15.3932 16.0415 15.408 16.0427 15.4247 16.0427C15.4413 16.0427 15.458 16.0415 15.4752 16.0402C15.7447 16.0143 15.9574 15.7886 15.9574 15.5105L15.9574 15.5093L15.9574 15.5081L15.9574 12.3057L15.9574 11.7729C15.9574 12.0683 15.7194 12.3057 15.4247 12.3057L12.7582 12.3057C12.4628 12.3057 12.2242 12.545 12.2242 12.8391L12.2242 16.0353L11.6914 16.0353L11.6914 12.8391C11.6914 12.545 11.4533 12.3057 11.1586 12.3057L8.49148 12.3057C8.19672 12.3057 7.95622 12.0683 7.95622 11.7729L7.95622 15.5105C7.96053 15.7886 8.17082 16.0143 8.44277 16.0402C8.45757 16.0415 8.47422 16.0427 8.49148 16.0427C8.5069 16.0427 8.52417 16.0415 8.54143 16.0402L10.6251 16.0402L10.6251 21.272C6.10622 20.6264 2.63378 16.7395 2.63378 12.0418C2.63378 8.32329 4.80937 5.11416 7.95622 3.61628L7.95622 11.2469L7.95622 11.2487C7.95622 11.2506 7.95868 11.2506 7.95868 11.2524C7.96053 11.2814 7.96238 11.3073 7.96608 11.3351C7.96917 11.348 7.97102 11.3597 7.97533 11.3702C7.97718 11.3863 7.98212 11.4017 7.98767 11.4165C7.9963 11.4418 8.0074 11.467 8.01973 11.4899C8.02035 11.4936 8.02158 11.4948 8.02343 11.4979C8.1073 11.6514 8.26023 11.7618 8.44277 11.7778C8.45757 11.7791 8.47422 11.7791 8.49148 11.7791C8.5069 11.7791 8.52417 11.7791 8.54143 11.7778L11.1949 11.7778C11.4737 11.797 11.6914 12.0257 11.6914 12.3076L11.6914 8.57612C11.6914 8.28259 11.4533 8.04394 11.1586 8.04394L9.77168 8.04394L9.7686 8.04209C9.51638 8.0168 9.31535 7.81515 9.29191 7.5617L9.29191 0.30602C3.96824 1.53503 1.77636e-15 6.30247 1.77636e-15 12.0005C1.77636e-15 18.613 5.35142 23.9761 11.9578 23.9995L12.0003 23.9995C18.6276 23.9995 24 18.6271 24 12.0005C24 6.27472 19.9911 1.4857 14.6248 0.28752" fill="#12806a"/></svg>

<svg viewBox="0 0 24 24" xmlns="http://www.w3.org/2000/svg"><path d="M13.007.042A11.837 11.837 0 0 0 12 0h-.042a11.915 11.915 0 0 0-1.333.08v6.815c0 .337.276.613.612.613h1.441a.616.616 0 0 0 .614-.613V.068c-.095-.01-.19-.017-.285-.026m1.618.246V7.562a.533.533 0 0 1-.478.48v.002h-1.389a.533.533 0 0 0-.534.532v3.732a.53.53 0 0 1 .495-.53h2.657l.049.001.05-.001a.534.534 0 0 0 .419-.28c0-.003.002-.004.003-.008a.677.677 0 0 0 .032-.074c.004-.014.01-.03.012-.046a.525.525 0 0 0 .016-.118V3.616a9.325 9.325 0 0 1 5.327 8.426c0 4.697-3.473 8.584-7.993 9.23V16.04h2.085a.672.672 0 0 0 .1 0 .533.533 0 0 0 .481-.53V11.772a.532.532 0 0 1-.532.533h-2.667a.534.534 0 0 0-.534.533v3.196h-.533V12.84a.533.533 0 0 0-.532-.533H8.49a.534.534 0 0 1-.535-.533v3.738a.538.538 0 0 0 .585.53h2.084v5.231a9.325 9.325 0 0 1-7.991-9.23 9.326 9.326 0 0 1 5.322-8.426v7.633c0 .002.003.002.003.003.002.03.003.055.007.083.003.013.005.025.01.035a.492.492 0 0 0 .044.12c0 .004.002.005.003.008a.533.533 0 0 0 .468.281l.05-.001h2.654a.53.53 0 0 1 .496.53V8.576a.532.532 0 0 0-.532-.532H9.772l-.003-.002a.533.533 0 0 1-.477-.48V.306C3.968 1.535 0 6.302 0 12.001 0 18.613 5.351 23.976 11.958 24H12c6.628 0 12-5.373 12-12C24 6.276 19.991 1.487 14.625.289" fill="#12806a"/></svg>
